src/icons/brand/glyph/TwitterIcon.svg

<svg width="24" height="24" viewBox="0 0 24 24" fill="none" xmlns="http://www.w3.org/2000/svg">
<path d="M19.945 7.99015C20.7583 7.42154 21.4425 6.71179 22 5.89456V5.89374C21.2558 6.21456 20.4642 6.4279 19.6375 6.53128C20.4875 6.03159 21.1367 5.24636 21.4417 4.30031C20.6492 4.76554 19.7742 5.09374 18.8417 5.27754C18.0892 4.48821 17.0167 4 15.8467 4C13.5767 4 11.7492 5.81415 11.7492 8.03774C11.7492 8.35774 11.7767 8.66544 11.8442 8.95836C8.43583 8.79426 5.41917 7.18605 3.3925 4.73518C3.03917 5.3399 2.83083 6.03159 2.83083 6.77579C2.83083 8.17395 3.56167 9.41292 4.6525 10.1309C3.99333 10.1186 3.3475 9.92985 2.8 9.63364V9.67795C2.8 11.6398 4.22083 13.2693 6.085 13.6451C5.75083 13.7354 5.3875 13.7781 5.01 13.7781C4.7475 13.7781 4.4825 13.7633 4.23417 13.7091C4.765 15.3075 6.27333 16.4833 8.065 16.5218C6.67 17.5959 4.89833 18.2433 2.98083 18.2433C2.645 18.2433 2.3225 18.2285 2 18.1883C3.81667 19.3411 5.96833 20 8.29 20C15.5258 20 20.2417 14.0562 19.945 7.99015Z" fill="currentColor"/>
</svg>

<svg xmlns="http://www.w3.org/2000/svg" width="24" height="24" fill="currentColor" viewBox="0 0 24 24">
  <path d="M19.945 7.99A8.117 8.117 0 0 0 22 5.895v-.001a8.668 8.668 0 0 1-2.363.637c.85-.5 1.5-1.285 1.805-2.23a8.282 8.282 0 0 1-2.6.977A4.137 4.137 0 0 0 15.847 4c-2.27 0-4.098 1.814-4.098 4.038 0 .32.028.627.095.92a11.67 11.67 0 0 1-8.451-4.223 4.024 4.024 0 0 0-.562 2.04c0 1.399.73 2.638 1.821 3.356A4.101 4.101 0 0 1 2.8 9.634v.044c0 1.962 1.42 3.591 3.285 3.967-.334.09-.697.133-1.075.133a3.67 3.67 0 0 1-.776-.069 4.133 4.133 0 0 0 3.831 2.813 8.324 8.324 0 0 1-5.084 1.721A7.72 7.72 0 0 1 2 18.188 11.678 11.678 0 0 0 8.29 20c7.236 0 11.952-5.944 11.655-12.01Z"/>
</svg>
